epam-assets/icon-sources/18/internal-logo/desk.svg

<svg width="18" height="18" viewBox="0 0 18 18" fill="none" xmlns="http://www.w3.org/2000/svg">
<g id="18/internal-logo/desk">
<path id="icon" d="M4.27694 10.2883C4.29362 10.2883 4.31014 10.2876 4.32665 10.287L5.3546 12.9839H5.12825C4.42413 12.9839 3.8513 13.5754 3.8513 14.3025V16.0605C3.8513 16.3032 4.04187 16.5 4.27694 16.5H11.0873C11.3224 16.5 11.5129 16.3032 11.5129 16.0605V15.1815C11.5129 13.9698 10.5582 12.9839 9.3847 12.9839H8.10775V12.5444C8.10775 12.3017 7.9172 12.1049 7.6821 12.1049C7.44705 12.1049 7.25645 12.3017 7.25645 12.5444V12.9839H6.26945L5.11735 9.96115C5.38465 9.7193 5.5539 9.3646 5.5539 8.9697C5.5539 8.7449 5.499 8.53305 5.4025 8.34765L8.54005 5.1079L9.1868 5.7757C8.64375 6.62025 8.7229 7.78295 9.45775 8.54175L10.0597 9.1633C10.2259 9.33495 10.4954 9.33495 10.6616 9.1633L14.8753 4.81234C15.0416 4.6407 15.0416 4.36243 14.8753 4.19078L14.2734 3.56923C13.5466 2.8188 12.4207 2.72569 11.5948 3.28973L10.3607 2.01532C9.6953 1.32827 8.6183 1.32819 7.95285 2.01532C7.29395 2.69565 7.2894 3.79927 7.93845 4.48596L4.77282 7.7547C4.6203 7.68805 4.4527 7.6512 4.27694 7.6512C3.57283 7.6512 3 8.2427 3 8.96975C3 9.69675 3.57283 10.2883 4.27694 10.2883ZM10.6616 15.1815V15.621H4.70259V14.3025C4.70259 14.0601 4.89354 13.863 5.12825 13.863H9.3847C10.0888 13.863 10.6616 14.4545 10.6616 15.1815ZM13.6714 4.19078L13.9724 4.50158L10.3607 8.23095L10.0597 7.92015C9.56065 7.40485 9.5606 6.5708 10.0597 6.05545L11.8655 4.19081C12.3634 3.67673 13.1735 3.67667 13.6714 4.19078ZM8.5548 2.63688C8.8875 2.29335 9.42595 2.29329 9.7587 2.63688L10.9626 3.87999L9.7587 5.12315C8.59605 3.89892 8.75395 4.07478 8.5548 3.88002C8.2229 3.53729 8.2229 2.97961 8.5548 2.63688ZM4.27694 8.5302C4.51164 8.5302 4.70259 8.72735 4.70259 8.9697C4.70259 9.21205 4.51164 9.4092 4.27694 9.4092C4.04224 9.4092 3.8513 9.21205 3.8513 8.9697C3.8513 8.72735 4.04224 8.5302 4.27694 8.5302ZM13.9755 6.5851L14.2479 6.8746C14.2728 6.90105 14.2723 6.94345 14.2467 6.9693L12.463 8.738C12.4375 8.76335 12.397 8.7626 12.3723 8.73635L12.1 8.4468C12.0751 8.42035 12.0756 8.37795 12.1011 8.3521L13.8848 6.58345C13.9104 6.5581 13.9508 6.55885 13.9755 6.5851Z" fill="#6C6F80"/>
</g>
</svg>

<svg xmlns="http://www.w3.org/2000/svg" width="18" height="18" fill="none" viewBox="0 0 18 18">
  <path fill="#6C6F80" d="m4.277 10.288.05-.001 1.028 2.697h-.227c-.704 0-1.277.591-1.277 1.319v1.758c0 .242.19.439.426.439h6.81a.433.433 0 0 0 .426-.44v-.878c0-1.212-.955-2.198-2.128-2.198H8.108v-.44c0-.242-.19-.44-.426-.44a.433.433 0 0 0-.426.44v.44H6.27L5.117 9.96a1.344 1.344 0 0 0 .285-1.614l3.138-3.24.647.669a2.251 2.251 0 0 0 .27 2.766l.603.621a.416.416 0 0 0 .602 0l4.213-4.35a.45.45 0 0 0 0-.622l-.602-.622a2.082 2.082 0 0 0-2.678-.28L10.36 2.016a1.664 1.664 0 0 0-2.408 0 1.8 1.8 0 0 0-.015 2.471L4.773 7.755a1.235 1.235 0 0 0-.496-.104C3.573 7.651 3 8.243 3 8.97s.573 1.318 1.277 1.318Zm6.385 4.893v.44h-5.96v-1.319c0-.242.192-.439.426-.439h4.257c.704 0 1.277.591 1.277 1.319Zm3.01-10.99.3.31-3.611 3.73-.301-.31a1.348 1.348 0 0 1 0-1.866l1.806-1.864a1.25 1.25 0 0 1 1.805 0ZM8.554 2.637a.832.832 0 0 1 1.204 0l1.204 1.243-1.204 1.243C8.596 3.9 8.754 4.075 8.555 3.88a.9.9 0 0 1 0-1.243ZM4.277 8.53c.235 0 .426.197.426.44 0 .242-.191.44-.426.44a.433.433 0 0 1-.426-.44c0-.243.191-.44.426-.44Zm9.698-1.945.273.29a.069.069 0 0 1-.001.094l-1.784 1.769a.063.063 0 0 1-.09-.002l-.273-.29a.069.069 0 0 1 .001-.094l1.784-1.769a.063.063 0 0 1 .09.002Z"/>
</svg>
